X: 413
T:Tenez moy en voz bras
N: Derived from Jos3012-Tenez_moy_en_voz_bras.krn
C: Josquin des Prez
%%abc-version 2.0
%%abcx-abcm2ps-target-version 5.9.1 (29 Sep 2008)
%%abc-creator hum2abc beta
%%abcx-conversion-date 2019/02/12 16:15:55
%%abc-edited-by Jesse Rodin
%%abc-edited-by Will Watson 08/09/2011
%%abcx-initial-encoding-date 2011/09/08/
%%humdrum-veritas 4119458069
%%humdrum-veritas-data 4206775772
%%linebreak <none>
%%barnumbers 0
L: 1/4
M: 2/1
Q: 1/2=120
V: 1 clef=treble
V: 2 clef=treble-8
V: 3 clef=treble-8
V: 4 clef=treble-8
V: 5 clef=bass
V: 6 clef=bass
K: F
[V:1] z8 | 
[V:2] G4G4 | 
[V:3] z8 | 
[V:4] z8 | 
[V:5] G,4G,4 | 
[V:6] z8 | 
[V:1] z8 | 
[V:2] A8 | 
[V:3] d8 | 
[V:4] z8 | 
[V:5] F,3E,D,C,D,2- | 
[V:6] D,4D,4 | 
[V:1] z8 | 
[V:2] A4A4 | 
[V:3] d4c2A2 | 
[V:4] z8 | 
[V:5] D,2C,B,,A,,2D,2 | 
[V:6] F,8 | 
[V:1] G4G4 | 
[V:2] d4d4- | 
[V:3] B8 | 
[V:4] z8 | 
[V:5] G,,4z4 | 
[V:6] G,4G,4 | 
[V:1] A8 | 
[V:2] d2d2A2d2 | 
[V:3] A8 | 
[V:4] z8 | 
[V:5] z2D,4D,2 | 
[V:6] D,4z4 | 
[V:1] A4A4 | 
[V:2] c3BAGF2 | 
[V:3] z8 | 
[V:4] z8 | 
[V:5] A,,4D,3C, | 
[V:6] z8 | 
[V:1] d8 | 
[V:2] F2G3AB2- | 
[V:3] z8 | 
[V:4] z8 | 
[V:5] B,,3A,,G,,2G,2- | 
[V:6] z8 | 
[V:1] z8 | 
[V:2] BAd4^c2 | 
[V:3] z4G4 | 
[V:4] G4G4 | 
[V:5] G,F,E,D,E,4 | 
[V:6] z8 | 
[V:1] z8 | 
[V:2] d4z4 | 
[V:3] F2D2E2F2- | 
[V:4] A8 | 
[V:5] D,4z4 | 
[V:6] z2D,2C,2D,2- | 
[V:1] z8 | 
[V:2] d4c2A2 | 
[V:3] F2EDE2F2 | 
[V:4] A4A4 | 
[V:5] z8 | 
[V:6] D,2C,B,,C,2D,2 | 
[V:1] z8 | 
[V:2] B8 | 
[V:3] G4D4 | 
[V:4] d8- | 
[V:5] G,6G,2 | 
[V:6] G,,8- | 
[V:1] z8 | 
[V:2] z2B2Bcde | 
[V:3] d6d2 | 
[V:4] d8 | 
[V:5] D,4G,4 | 
[V:6] G,,8 | 
[V:1] c6c2 | 
[V:2] f4e4- | 
[V:3] A4c4- | 
[V:4] z8 | 
[V:5] F,2E,D,C,3D, | 
[V:6] z8 | 
[V:1] G4c3B | 
[V:2] e4z4 | 
[V:3] c2B2A3G/F/ | 
[V:4] z8 | 
[V:5] E,4F,4- | 
[V:6] z8 | 
[V:1] A2G2F3E | 
[V:2] z8 | 
[V:3] c4d4- | 
[V:4] z8 | 
[V:5] F,2E,2D,3C, | 
[V:6] z8 | 
[V:1] D2G4^F2 | 
[V:2] z8 | 
[V:3] d2c2d4 | 
[V:4] z8 | 
[V:5] B,,2_E,2D,4 | 
[V:6] z8 | 
[V:1] G4z4 | 
[V:2] z4g4- | 
[V:3] _e8- | 
[V:4] c6c2 | 
[V:5] C,8- | 
[V:6] z8 | 
[V:1] z8 | 
[V:2] g4g4 | 
[V:3] e8 | 
[V:4] G4c4 | 
[V:5] C,8 | 
[V:6] G,4G,4 | 
[V:1] z8 | 
[V:2] d3ef2ed | 
[V:3] z4d4 | 
[V:4] B4A4 | 
[V:5] z8 | 
[V:6] G,4D,2F,2 | 
[V:1] z4d4 | 
[V:2] ^c4d4 | 
[V:3] e4f4 | 
[V:4] G4F4 | 
[V:5] z8 | 
[V:6] E,4D,4 | 
[V:1] c2B4AG | 
[V:2] z8 | 
[V:3] e2d3^c/=B/^c2 | 
[V:4] G4G4 | 
[V:5] z8 | 
[V:6] E,8 | 
[V:1] F3GABA2- | 
[V:2] z2f4ed | 
[V:3] d6cB | 
[V:4] A8 | 
[V:5] D,4D,2F,2- | 
[V:6] D,8 | 
[V:1] A2GFG4 | 
[V:2] c2d2e2c2 | 
[V:3] A2d2G4 | 
[V:4] A4c4 | 
[V:5] F,E,D,2C,2E,2 | 
[V:6] z8 | 
[V:1] F8 | 
[V:2] z2A2B2AG | 
[V:3] A2F2F4 | 
[V:4] d8 | 
[V:5] D,4B,,4 | 
[V:6] D,6C,B,, | 
[V:1] z2A3BcA | 
[V:2] AGFEF4 | 
[V:3] z8 | 
[V:4] c4c4 | 
[V:5] C,8 | 
[V:6] A,,8 | 
[V:1] B6AG | 
[V:2] G4z2d2- | 
[V:3] z8 | 
[V:4] B2d4cB | 
[V:5] D,8 | 
[V:6] G,,4G,,A,,B,,C, | 
[V:1] F2G4^F2 | 
[V:2] d2c2d4- | 
[V:3] z4A4 | 
[V:4] A2G2A4 | 
[V:5] z8 | 
[V:6] D,2_E,2D,4 | 
[V:1] G8- | 
[V:2] d4c2_e2- | 
[V:3] B3AG2F2 | 
[V:4] G8- | 
[V:5] z4C,4 | 
[V:6] G,,4z4 | 
[V:1] G8 | 
[V:2] edcBc4 | 
[V:3] _E4_E4 | 
[V:4] G8 | 
[V:5] C,4C,4 | 
[V:6] G,4G,4 | 
[V:1] z8 | 
[V:2] d4f4 | 
[V:3] D2d2d2d2 | 
[V:4] z8 | 
[V:5] G,,4z4 | 
[V:6] G,4D,4 | 
[V:1] z8 | 
[V:2] f4f4 | 
[V:3] A6B2 | 
[V:4] z8 | 
[V:5] D,8 | 
[V:6] z4A,4- | 
[V:1] z8 | 
[V:2] e6d2 | 
[V:3] c6BA | 
[V:4] z8 | 
[V:5] A,,6B,,2 | 
[V:6] A,4E,4- | 
[V:1] z8 | 
[V:2] c2f4e2 | 
[V:3] G2B2c4 | 
[V:4] z8 | 
[V:5] C,2D,2C,4 | 
[V:6] E,2F,2G,4 | 
[V:1] c4c4 | 
[V:2] f8 | 
[V:3] cBAGA4- | 
[V:4] c8 | 
[V:5] F,,6G,,2 | 
[V:6] A,2F,4E,D, | 
[V:1] c4G4 | 
[V:2] e8 | 
[V:3] A2GFG3F | 
[V:4] c4c4 | 
[V:5] A,,3B,,C,3D, | 
[V:6] C,4z2C,2 | 
[V:1] z4d4- | 
[V:2] e4d3e | 
[V:3] EDC2D2G2 | 
[V:4] G4z4 | 
[V:5] E,2F,2G,4 | 
[V:6] C,2C,2G,,4 | 
[V:1] d4A4- | 
[V:2] f4d4 | 
[V:3] F2D2d4- | 
[V:4] d8 | 
[V:5] D,4z4 | 
[V:6] z4D,4- | 
[V:1] A2B2c4- | 
[V:2] a6gf | 
[V:3] d4c4 | 
[V:4] A6B2 | 
[V:5] F,6E,D, | 
[V:6] D,4A,,4- | 
[V:1] c2BAG4 | 
[V:2] e4z2e2 | 
[V:3] z4c4 | 
[V:4] c8 | 
[V:5] C,3D,E,2C,2 | 
[V:6] A,,2B,,2C,4 | 
[V:1] A3Bc2d2- | 
[V:2] f6d2 | 
[V:3] c2A4F2- | 
[V:4] z8 | 
[V:5] F,6B,,2 | 
[V:6] F,,4F,4 | 
[V:1] dcBAB4 | 
[V:2] f4g4 | 
[V:3] F2D4E2 | 
[V:4] d4d4 | 
[V:5] B,,4G,,4 | 
[V:6] D,4G,4 | 
[V:1] A6GF | 
[V:2] a2f4ed | 
[V:3] F2D2A4 | 
[V:4] d4f4 | 
[V:5] D,4z4 | 
[V:6] F,4D,4 | 
[V:1] G4F2B2- | 
[V:2] c4z2g2 | 
[V:3] z8 | 
[V:4] e4d4 | 
[V:5] z8 | 
[V:6] E,2C,2D,2G,2 | 
[V:1] B2A4G2 | 
[V:2] e2f2d4- | 
[V:3] z4z2d2 | 
[V:4] c4B4 | 
[V:5] z8 | 
[V:6] A,2F,2G,4 | 
[V:1] A8 | 
[V:2] d4z4 | 
[V:3] f4d2f2 | 
[V:4] A8 | 
[V:5] D,8 | 
[V:6] D,4z4 | 
[V:1] z8 | 
[V:2] G4G4 | 
[V:3] e2d4c2 | 
[V:4] z8 | 
[V:5] C,2B,,2_E,2E,2 | 
[V:6] z8 | 
[V:1] z8 | 
[V:2] A8 | 
[V:3] d4d4- | 
[V:4] z8 | 
[V:5] D,2F,3E,D,2- | 
[V:6] D,4D,4 | 
[V:1] z8 | 
[V:2] A4A4 | 
[V:3] d4c2A2 | 
[V:4] z8 | 
[V:5] D,2C,B,,A,,2D,2 | 
[V:6] F,8 | 
[V:1] G4G4 | 
[V:2] d4d4- | 
[V:3] B4B4 | 
[V:4] z8 | 
[V:5] G,,4z4 | 
[V:6] G,4G,4 | 
[V:1] A8 | 
[V:2] d2d2A2d2 | 
[V:3] A8 | 
[V:4] z8 | 
[V:5] z2D,4D,2 | 
[V:6] D,4z4 | 
[V:1] A4A4 | 
[V:2] c3BAGF2 | 
[V:3] z8 | 
[V:4] z8 | 
[V:5] A,,4D,3C, | 
[V:6] z8 | 
[V:1] d8 | 
[V:2] F2G3AB2- | 
[V:3] z8 | 
[V:4] z8 | 
[V:5] B,,3A,,G,,2G,2- | 
[V:6] z8 | 
[V:1] z8 | 
[V:2] BAd4^c2 | 
[V:3] z4G4 | 
[V:4] G4G4 | 
[V:5] G,F,E,D,E,4 | 
[V:6] z8 | 
[V:1] z8 | 
[V:2] d4z4 | 
[V:3] F2D2E2F2- | 
[V:4] A8 | 
[V:5] D,4z4 | 
[V:6] z2D,2C,2D,2- | 
[V:1] z8 | 
[V:2] d4c2A2 | 
[V:3] F2EDE2F2 | 
[V:4] A4A4 | 
[V:5] z8 | 
[V:6] D,2C,B,,C,2D,2 | 
[V:1] z8 | 
[V:2] B8 | 
[V:3] G4D4 | 
[V:4] d8- | 
[V:5] G,6G,2 | 
[V:6] G,,8- | 
[V:1] z8 | 
[V:2] z2B2Bcde | 
[V:3] d6d2 | 
[V:4] d8 | 
[V:5] D,4G,4 | 
[V:6] G,,8 | 
[V:1] c6c2 | 
[V:2] f4e4- | 
[V:3] A4c4- | 
[V:4] z8 | 
[V:5] F,2E,D,C,3D, | 
[V:6] z8 | 
[V:1] G4c3B | 
[V:2] e4z4 | 
[V:3] c2B2A3G/F/ | 
[V:4] z8 | 
[V:5] E,4F,4- | 
[V:6] z8 | 
[V:1] A2G2F3E | 
[V:2] z8 | 
[V:3] c4d4- | 
[V:4] z8 | 
[V:5] F,2E,2D,3C, | 
[V:6] z8 | 
[V:1] D2G4^F2 | 
[V:2] z8 | 
[V:3] d2c2d4 | 
[V:4] z8 | 
[V:5] B,,2_E,2D,4 | 
[V:6] z8 | 
[V:1] G4z4 | 
[V:2] z4g4- | 
[V:3] _e8- | 
[V:4] c6c2 | 
[V:5] C,8- | 
[V:6] z8 | 
[V:1] z8 | 
[V:2] g4g4 | 
[V:3] e8 | 
[V:4] G4c4 | 
[V:5] C,8 | 
[V:6] G,4G,4 | 
[V:1] z8 | 
[V:2] d3ef2ed | 
[V:3] z4d4 | 
[V:4] B4A4 | 
[V:5] z8 | 
[V:6] G,4D,2F,2 | 
[V:1] z4d4 | 
[V:2] ^c4d4 | 
[V:3] e4f4 | 
[V:4] G4F4 | 
[V:5] z8 | 
[V:6] E,4D,4 | 
[V:1] c2B4AG | 
[V:2] z8 | 
[V:3] e2d3^c/=B/^c2 | 
[V:4] G4G4 | 
[V:5] z8 | 
[V:6] E,8 | 
[V:1] F3GABA2- | 
[V:2] z2f4ed | 
[V:3] d6cB | 
[V:4] A8 | 
[V:5] D,4D,2F,2- | 
[V:6] D,8 | 
[V:1] A2GFG4 | 
[V:2] c2d2e2c2 | 
[V:3] A2d2G4 | 
[V:4] A4c4 | 
[V:5] F,E,D,2C,2E,2 | 
[V:6] z8 | 
[V:1] F8 | 
[V:2] z2A2B2AG | 
[V:3] A2F2F4 | 
[V:4] d8 | 
[V:5] D,4B,,4 | 
[V:6] D,6C,B,, | 
[V:1] z2A3BcA | 
[V:2] AGFEF4 | 
[V:3] z8 | 
[V:4] c4c4 | 
[V:5] C,8 | 
[V:6] A,,8 | 
[V:1] B6AG | 
[V:2] G4z2d2- | 
[V:3] z8 | 
[V:4] B2d4cB | 
[V:5] D,8 | 
[V:6] G,,4G,,A,,B,,C, | 
[V:1] F2G4^F2 | 
[V:2] d2c2d4- | 
[V:3] z4A4 | 
[V:4] A2G2A4 | 
[V:5] z8 | 
[V:6] D,2_E,2D,4 | 
[V:1] G8- | 
[V:2] d2B3cd2 | 
[V:3] B3cd2B2 | 
[V:4] G8- | 
[V:5] D,8 | 
[V:6] G,,3A,,B,,2G,,2 | 
[V:1] G8- | 
[V:2] G3ABGd2- | 
[V:3] c4d4 | 
[V:4] G8- | 
[V:5] _E,4D,4 | 
[V:6] C,4B,,4 | 
[V:1] G8- | 
[V:2] d2cBc4 | 
[V:3] G4c4 | 
[V:4] G8- | 
[V:5] _E,8 | 
[V:6] C,8 | 
[V:1] G8 |]  
[V:2] d8 |]  
[V:3] B8 |]  
[V:4] G8 |]  
[V:5] D,8 |]  
[V:6] G,,8 |]  



